assets/svg/twitch_downloader.svg

<svg xmlns="http://www.w3.org/2000/svg" width="50" height="50" fill="none" viewBox="0 0 50 50"><path fill="#c298c5" d="M43.94 36.38c-.79.87-1.57 1.74-2.35 2.62-.19.21-.36.43-.54.64-.76.85-1.51 1.69-2.29 2.56-.16.03-.3.05-.44.05l-3.39-.03c-2.08-.02-4.16-.04-6.24-.05-.89-.01-1.78-.03-2.67 0-.37.01-.76.09-1.1.23-.75.3-1.48.67-2.22 1.01-2.65 1.21-5.29 2.43-7.93 3.64-.09.04-.21 0-.31 0 .01-.11 0-.24.05-.33.48-1.06.5-2.11-.05-3.13-.54-.99-1.38-1.43-2.41-1.43-3-.01-6.01-.01-9.02-.01-.42 0-.43 0-.43-.46V13.11c0-.36 0-.36.33-.36h40.28c.34 0 .34 0 .34.36V26.5c0 .24-.01.49 0 .73.01.21-.07.26-.24.26-.4-.01-.81-.01-1.21-.01h-1.72c-.58.01-.82.43-.55.99.05.12.11.22.17.33l3.75 7.14c.08.14.13.29.19.44M14 32.31c0 .51-.05.45.42.45h2.88c.34 0 .34 0 .34-.36V20.08c0-.37 0-.38-.33-.38h-3c-.31 0-.31.01-.31.36zm17.67.45c.19 0 .38.06.38-.3-.02-4.16-.01-8.31-.01-12.47 0-.22-.05-.29-.26-.29q-1.56.015-3.12 0c-.21 0-.26.07-.26.29.01 4.16.01 8.31 0 12.47 0 .26.09.31.3.31.97-.01 1.95-.01 2.97-.01"/><path d="M41.59 39c-.19.21-.36.43-.54.64-.76.85-1.51 1.69-2.29 2.56-.16.03-.3.05-.44.05l-3.39-.03c-2.08-.02-4.16-.04-6.24-.05-.89-.01-1.78-.03-2.67 0-.37.01-.76.09-1.1.23-.75.3-1.48.67-2.22 1.01-2.65 1.21-5.29 2.43-7.93 3.64-.09.04-.21 0-.31 0 .01-.11 0-.24.05-.33.48-1.06.5-2.11-.05-3.13-.54-.99-1.38-1.43-2.41-1.43-3-.01-6.01-.01-9.02-.01-.42 0-.43 0-.43-.46V13.11c0-.36 0-.36.33-.36h40.28c.34 0 .34 0 .34.36V26.5c0 .24-.01.49 0 .73.01.21-.07.26-.24.26-.4-.01-.81-.01-1.21-.01h-1.72c-.58.01-.82.43-.55.99.05.12.11.22.17.33l3.75 7.14c.08.14.13.29.19.44-.79.87-1.57 1.74-2.35 2.62m-27.17-6.24h2.88c.34 0 .34 0 .34-.36V20.08c0-.37 0-.38-.33-.38h-3c-.31 0-.31.01-.31.36v12.25c0 .51-.05.45.42.45m17.63-.3c-.02-4.16-.01-8.31-.01-12.47 0-.22-.05-.29-.26-.29q-1.56.015-3.12 0c-.21 0-.26.07-.26.29.01 4.16.01 8.31 0 12.47 0 .26.09.31.3.31.97-.01 1.95-.01 2.97-.01.19 0 .38.06.38-.3"/><path fill="#804198" d="M43.95 36.39c-.07-.16-.12-.31-.2-.45L40 28.8c-.06-.11-.12-.21-.17-.33-.27-.56-.03-.98.55-.99h1.72c.4 0 .81 0 1.21.01.17 0 .25-.05.24-.26-.01-.24 0-.49 0-.73V13.11c0-.36 0-.36-.34-.36H2.93c-.33 0-.33 0-.33.36v28.58c0 .46.01.46.43.46 3.01 0 6.02 0 9.02.01 1.03 0 1.87.44 2.41 1.43.55 1.02.53 2.07.05 3.13-.05.09-.04.22-.05.33.1 0 .22.04.31 0 2.64-1.21 5.28-2.43 7.93-3.64.74-.34 1.47-.71 2.22-1.01.35-.14.73-.22 1.1-.23.89-.03 1.78-.01 2.67 0 2.08.01 4.16.03 6.24.05l3.39.03c.14 0 .28-.02.44-.03.48-.01.94 0 1.4-.01.58 0 1.03.5 1.03 1.13v.64c0 .63-.44 1.14-1 1.15h-5.92c-.77-.01-1.54-.04-2.31-.05-1.75-.03-3.5-.02-5.25-.07-.56-.01-1.06.13-1.57.37-1.3.62-2.62 1.21-3.94 1.82-1.35.62-2.7 1.25-4.05 1.87-.63.29-1.26.61-1.91.82-1.56.49-3.19-.77-3.41-2.54-.08-.71.04-1.35.36-1.96.14-.28.09-.37-.22-.37-3.07 0-6.13.01-9.19 0-1.32-.01-2.38-.95-2.72-2.36-.05-.19-.06-.4-.06-.61-.01-10.6 0-21.21 0-31.81V9.9h46.15v17.58h3.27c.44 0 .71.47.5.89-.41.82-.84 1.62-1.26 2.43-.46.87-.92 1.74-1.38 2.62-.45.86-.91 1.73-1.36 2.6-.2.37-.4.75-.61 1.12-.2.36-.62.41-.86.08-.19-.25-.32-.55-.5-.83"/><path d="M43.75 35.94 40 28.8c-.06-.11-.12-.21-.17-.33-.27-.56-.03-.98.55-.99h1.72c.4 0 .81 0 1.21.01.17 0 .25-.05.24-.26-.01-.24 0-.49 0-.73V13.11c0-.36 0-.36-.34-.36H2.93c-.33 0-.33 0-.33.36v28.58c0 .46.01.46.43.46 3.01 0 6.02 0 9.02.01 1.03 0 1.87.44 2.41 1.43.55 1.02.53 2.07.05 3.13-.05.09-.04.22-.05.33.1 0 .22.04.31 0 2.64-1.21 5.28-2.43 7.93-3.64.74-.34 1.47-.71 2.22-1.01.35-.14.73-.22 1.1-.23.89-.03 1.78-.01 2.67 0 2.08.01 4.16.03 6.24.05l3.39.03c.14 0 .28-.02.44-.03.48-.01.94 0 1.4-.01.58 0 1.03.5 1.03 1.13v.64c0 .63-.44 1.14-1 1.15h-5.92c-.77-.01-1.54-.04-2.31-.05-1.75-.03-3.5-.02-5.25-.07-.56-.01-1.06.13-1.57.37-1.3.62-2.62 1.21-3.94 1.82-1.35.62-2.7 1.25-4.05 1.87-.63.29-1.26.61-1.91.82-1.56.49-3.19-.77-3.41-2.54-.08-.71.04-1.35.36-1.96.14-.28.09-.37-.22-.37-3.07 0-6.13.01-9.19 0-1.32-.01-2.38-.95-2.72-2.36-.05-.19-.06-.4-.06-.61-.01-10.6 0-21.21 0-31.81V9.9h46.15v17.58h3.27c.44 0 .71.47.5.89-.41.82-.84 1.62-1.26 2.43-.46.87-.92 1.74-1.38 2.62-.45.86-.91 1.73-1.36 2.6-.2.37-.4.75-.61 1.12-.2.36-.62.41-.86.08-.19-.25-.32-.55-.5-.83-.07-.16-.12-.31-.2-.45"/><path fill="#804198" d="M36.96 8.91H.04v-2.6c0-1.67.02-3.33 0-5C.02.51.64-.01 1.25 0c4.69.01 9.38 0 14.08 0 .35 0 .63.14.89.4.85.88 1.72 1.75 2.58 2.62.35.36.7.7 1.05 1.05.18.18.36.38.56.55.06.06.18.08.27.08h5.8c6.12 0 12.24 0 18.35-.01.59 0 1.23.45 1.26 1.26.04.97.01 1.95.01 2.96z"/><path d="M.04 8.91v-2.6c0-1.67.02-3.33 0-5C.02.51.64-.01 1.25 0c4.69.01 9.38 0 14.08 0 .35 0 .63.14.89.4.85.88 1.72 1.75 2.58 2.62.35.36.7.7 1.05 1.05.18.18.36.38.56.55.06.06.18.08.27.08h5.8c6.12 0 12.24 0 18.35-.01.59 0 1.23.45 1.26 1.26.04.97.01 1.95.01 2.96H.04"/><path fill="#fff" d="M14 32.28V20.06c0-.35 0-.36.31-.36h3c.33 0 .33 0 .33.38V32.4c0 .36 0 .36-.34.36h-2.88c-.47 0-.42.06-.42-.48"/><path d="M14 20.06c0-.35 0-.36.31-.36h3c.33 0 .33 0 .33.38V32.4c0 .36 0 .36-.34.36h-2.88c-.47 0-.42.06-.42-.48z"/><path fill="#fff" d="M31.65 32.76c-1 0-1.98 0-2.95.01-.21 0-.3-.05-.3-.31.01-4.16.01-8.31 0-12.47 0-.22.05-.29.26-.29q1.56.015 3.12 0c.21 0 .26.07.26.29 0 4.16-.01 8.31.01 12.47 0 .36-.19.3-.4.3"/><path d="M28.7 32.77c-.21 0-.3-.05-.3-.31.01-4.16.01-8.31 0-12.47 0-.22.05-.29.26-.29q1.56.015 3.12 0c.21 0 .26.07.26.29 0 4.16-.01 8.31.01 12.47 0 .36-.19.3-.4.3-1 0-1.98 0-2.95.01"/></svg>

<svg width="50.000000" height="50.000000" viewBox="0 0 50 50" fill="none" xmlns="http://www.w3.org/2000/svg" xmlns:xlink="http://www.w3.org/1999/xlink">
	<desc>
			Created with Pixso.
	</desc>
	<defs/>
	<path id="path" d="M43.94 36.38C43.15 37.25 42.37 38.12 41.59 39C41.4 39.21 41.23 39.43 41.05 39.64C40.29 40.49 39.54 41.33 38.76 42.2C38.6 42.23 38.46 42.25 38.32 42.25C37.19 42.24 36.06 42.23 34.93 42.22C32.85 42.2 30.77 42.18 28.69 42.17C27.8 42.16 26.91 42.14 26.02 42.17C25.65 42.18 25.26 42.26 24.92 42.4C24.17 42.7 23.44 43.07 22.7 43.41C20.05 44.62 17.41 45.84 14.77 47.05C14.68 47.09 14.56 47.05 14.46 47.05C14.47 46.94 14.46 46.81 14.51 46.72C14.99 45.66 15.01 44.61 14.46 43.59C13.92 42.6 13.08 42.16 12.05 42.16C9.05 42.15 6.04 42.15 3.03 42.15C2.61 42.15 2.6 42.15 2.6 41.69C2.6 32.17 2.6 22.64 2.6 13.11C2.6 12.75 2.6 12.75 2.93 12.75C16.36 12.75 29.79 12.75 43.21 12.75C43.55 12.75 43.55 12.75 43.55 13.11C43.55 17.58 43.55 22.04 43.55 26.5C43.55 26.74 43.54 26.99 43.55 27.23C43.56 27.44 43.48 27.49 43.31 27.49C42.91 27.48 42.5 27.48 42.1 27.48C41.53 27.48 40.96 27.48 40.38 27.48C39.8 27.49 39.56 27.91 39.83 28.47C39.88 28.59 39.94 28.69 40 28.8C41.25 31.18 42.5 33.56 43.75 35.94C43.83 36.08 43.88 36.23 43.94 36.38ZM14 32.31C14 32.82 13.95 32.76 14.42 32.76C15.38 32.76 16.34 32.76 17.3 32.76C17.64 32.76 17.64 32.76 17.64 32.4C17.64 28.29 17.64 24.18 17.64 20.08C17.64 19.71 17.64 19.7 17.31 19.7C16.31 19.7 15.31 19.7 14.31 19.7C14 19.7 14 19.71 14 20.06C14 24.13 14 28.19 14 32.31ZM31.67 32.76C31.86 32.76 32.05 32.82 32.05 32.46C32.03 28.3 32.04 24.15 32.04 19.99C32.04 19.77 31.99 19.7 31.78 19.7C30.74 19.71 29.7 19.71 28.66 19.7C28.45 19.7 28.4 19.77 28.4 19.99C28.41 24.15 28.41 28.3 28.4 32.46C28.4 32.72 28.49 32.77 28.7 32.77C29.67 32.76 30.65 32.76 31.67 32.76Z" fill="#C298C5" fill-opacity="1.000000" fill-rule="nonzero"/>
	<path id="path" d="M41.59 39C41.4 39.21 41.23 39.43 41.05 39.64C40.29 40.49 39.54 41.33 38.76 42.2C38.6 42.23 38.46 42.25 38.32 42.25C37.19 42.24 36.06 42.23 34.93 42.22C32.85 42.2 30.77 42.18 28.69 42.17C27.8 42.16 26.91 42.14 26.02 42.17C25.65 42.18 25.26 42.26 24.92 42.4C24.17 42.7 23.44 43.07 22.7 43.41C20.05 44.62 17.41 45.84 14.77 47.05C14.68 47.09 14.56 47.05 14.46 47.05C14.47 46.94 14.46 46.81 14.51 46.72C14.99 45.66 15.01 44.61 14.46 43.59C13.92 42.6 13.08 42.16 12.05 42.16C9.05 42.15 6.04 42.15 3.03 42.15C2.61 42.15 2.6 42.15 2.6 41.69C2.6 32.17 2.6 22.64 2.6 13.11C2.6 12.75 2.6 12.75 2.93 12.75C16.36 12.75 29.79 12.75 43.21 12.75C43.55 12.75 43.55 12.75 43.55 13.11C43.55 17.58 43.55 22.04 43.55 26.5C43.55 26.74 43.54 26.99 43.55 27.23C43.56 27.44 43.48 27.49 43.31 27.49C42.91 27.48 42.5 27.48 42.1 27.48C41.53 27.48 40.96 27.48 40.38 27.48C39.8 27.49 39.56 27.91 39.83 28.47C39.88 28.59 39.94 28.69 40 28.8C41.25 31.18 42.5 33.56 43.75 35.94C43.83 36.08 43.88 36.23 43.94 36.38C43.15 37.25 42.37 38.12 41.59 39ZM14.42 32.76C15.38 32.76 16.34 32.76 17.3 32.76C17.64 32.76 17.64 32.76 17.64 32.4C17.64 28.29 17.64 24.18 17.64 20.08C17.64 19.71 17.64 19.7 17.31 19.7C16.31 19.7 15.31 19.7 14.31 19.7C14 19.7 14 19.71 14 20.06C14 24.13 14 28.19 14 32.31C14 32.82 13.95 32.76 14.42 32.76ZM32.05 32.46C32.03 28.3 32.04 24.15 32.04 19.99C32.04 19.77 31.99 19.7 31.78 19.7C30.74 19.71 29.7 19.71 28.66 19.7C28.45 19.7 28.4 19.77 28.4 19.99C28.41 24.15 28.41 28.3 28.4 32.46C28.4 32.72 28.49 32.77 28.7 32.77C29.67 32.76 30.65 32.76 31.67 32.76C31.86 32.76 32.05 32.82 32.05 32.46Z" stroke="#000000" stroke-opacity="0" stroke-width="1.000000"/>
	<path id="path" d="M43.95 36.39C43.88 36.23 43.83 36.08 43.75 35.94C42.5 33.56 41.25 31.18 40 28.8C39.94 28.69 39.88 28.59 39.83 28.47C39.56 27.91 39.8 27.49 40.38 27.48C40.96 27.48 41.53 27.48 42.1 27.48C42.5 27.48 42.91 27.48 43.31 27.49C43.48 27.49 43.56 27.44 43.55 27.23C43.54 26.99 43.55 26.74 43.55 26.5C43.55 22.04 43.55 17.58 43.55 13.11C43.55 12.75 43.55 12.75 43.21 12.75C29.79 12.75 16.36 12.75 2.93 12.75C2.6 12.75 2.6 12.75 2.6 13.11C2.6 22.64 2.6 32.17 2.6 41.69C2.6 42.15 2.61 42.15 3.03 42.15C6.04 42.15 9.05 42.15 12.05 42.16C13.08 42.16 13.92 42.6 14.46 43.59C15.01 44.61 14.99 45.66 14.51 46.72C14.46 46.81 14.47 46.94 14.46 47.05C14.56 47.05 14.68 47.09 14.77 47.05C17.41 45.84 20.05 44.62 22.7 43.41C23.44 43.07 24.17 42.7 24.92 42.4C25.27 42.26 25.65 42.18 26.02 42.17C26.91 42.14 27.8 42.16 28.69 42.17C30.77 42.18 32.85 42.2 34.93 42.22C36.06 42.23 37.19 42.24 38.32 42.25C38.46 42.25 38.6 42.23 38.76 42.22C39.24 42.21 39.7 42.22 40.16 42.21C40.74 42.21 41.19 42.71 41.19 43.34C41.19 43.55 41.19 43.77 41.19 43.98C41.19 44.61 40.75 45.12 40.19 45.13C38.21 45.13 36.24 45.13 34.27 45.13C33.5 45.12 32.73 45.09 31.96 45.08C30.21 45.05 28.46 45.06 26.71 45.01C26.15 45 25.65 45.14 25.14 45.38C23.84 46 22.52 46.59 21.2 47.2C19.85 47.82 18.5 48.45 17.15 49.07C16.52 49.36 15.89 49.68 15.24 49.89C13.68 50.38 12.05 49.12 11.83 47.35C11.75 46.64 11.87 46 12.19 45.39C12.33 45.11 12.28 45.02 11.97 45.02C8.9 45.02 5.84 45.03 2.78 45.02C1.46 45.01 0.4 44.07 0.06 42.66C0.01 42.47 0 42.26 0 42.05C-0.01 31.45 0 20.84 0 10.24C0 10.13 0 10.02 0 9.9C15.38 9.9 30.75 9.9 46.15 9.9C46.15 15.75 46.15 21.59 46.15 27.48C46.25 27.48 46.34 27.48 46.43 27.48C47.42 27.48 48.42 27.48 49.42 27.48C49.86 27.48 50.13 27.95 49.92 28.37C49.51 29.19 49.08 29.99 48.66 30.8C48.2 31.67 47.74 32.54 47.28 33.42C46.83 34.28 46.37 35.15 45.92 36.02C45.72 36.39 45.52 36.77 45.31 37.14C45.11 37.5 44.69 37.55 44.45 37.22C44.26 36.97 44.13 36.67 43.95 36.39Z" fill="#804198" fill-opacity="1.000000" fill-rule="nonzero"/>
	<path id="path" d="M43.75 35.94C42.5 33.56 41.25 31.18 40 28.8C39.94 28.69 39.88 28.59 39.83 28.47C39.56 27.91 39.8 27.49 40.38 27.48C40.96 27.48 41.53 27.48 42.1 27.48C42.5 27.48 42.91 27.48 43.31 27.49C43.48 27.49 43.56 27.44 43.55 27.23C43.54 26.99 43.55 26.74 43.55 26.5C43.55 22.04 43.55 17.58 43.55 13.11C43.55 12.75 43.55 12.75 43.21 12.75C29.79 12.75 16.36 12.75 2.93 12.75C2.6 12.75 2.6 12.75 2.6 13.11C2.6 22.64 2.6 32.17 2.6 41.69C2.6 42.15 2.61 42.15 3.03 42.15C6.04 42.15 9.05 42.15 12.05 42.16C13.08 42.16 13.92 42.6 14.46 43.59C15.01 44.61 14.99 45.66 14.51 46.72C14.46 46.81 14.47 46.94 14.46 47.05C14.56 47.05 14.68 47.09 14.77 47.05C17.41 45.84 20.05 44.62 22.7 43.41C23.44 43.07 24.17 42.7 24.92 42.4C25.27 42.26 25.65 42.18 26.02 42.17C26.91 42.14 27.8 42.16 28.69 42.17C30.77 42.18 32.85 42.2 34.93 42.22C36.06 42.23 37.19 42.24 38.32 42.25C38.46 42.25 38.6 42.23 38.76 42.22C39.24 42.21 39.7 42.22 40.16 42.21C40.74 42.21 41.19 42.71 41.19 43.34C41.19 43.55 41.19 43.77 41.19 43.98C41.19 44.61 40.75 45.12 40.19 45.13C38.21 45.13 36.24 45.13 34.27 45.13C33.5 45.12 32.73 45.09 31.96 45.08C30.21 45.05 28.46 45.06 26.71 45.01C26.15 45 25.65 45.14 25.14 45.38C23.84 46 22.52 46.59 21.2 47.2C19.85 47.82 18.5 48.45 17.15 49.07C16.52 49.36 15.89 49.68 15.24 49.89C13.68 50.38 12.05 49.12 11.83 47.35C11.75 46.64 11.87 46 12.19 45.39C12.33 45.11 12.28 45.02 11.97 45.02C8.9 45.02 5.84 45.03 2.78 45.02C1.46 45.01 0.4 44.07 0.06 42.66C0.01 42.47 0 42.26 0 42.05C-0.01 31.45 0 20.84 0 10.24C0 10.13 0 10.02 0 9.9C15.38 9.9 30.75 9.9 46.15 9.9C46.15 15.75 46.15 21.59 46.15 27.48C46.25 27.48 46.34 27.48 46.43 27.48C47.42 27.48 48.42 27.48 49.42 27.48C49.86 27.48 50.13 27.95 49.92 28.37C49.51 29.19 49.08 29.99 48.66 30.8C48.2 31.67 47.74 32.54 47.28 33.42C46.83 34.28 46.37 35.15 45.92 36.02C45.72 36.39 45.52 36.77 45.31 37.14C45.11 37.5 44.69 37.55 44.45 37.22C44.26 36.97 44.13 36.67 43.95 36.39C43.88 36.23 43.83 36.08 43.75 35.94Z" stroke="#000000" stroke-opacity="0" stroke-width="1.000000"/>
	<path id="path" d="M36.96 8.91C24.65 8.91 12.36 8.91 0.04 8.91C0.04 8.79 0.04 8.7 0.04 8.6C0.04 7.84 0.04 7.07 0.04 6.31C0.04 4.64 0.06 2.98 0.04 1.31C0.02 0.51 0.64 -0.01 1.25 0C5.94 0.01 10.63 0 15.33 0C15.68 0 15.96 0.14 16.22 0.4C17.07 1.28 17.94 2.15 18.8 3.02C19.15 3.38 19.5 3.72 19.85 4.07C20.03 4.25 20.21 4.45 20.41 4.62C20.47 4.68 20.59 4.7 20.68 4.7C22.61 4.7 24.54 4.7 26.48 4.7C32.6 4.7 38.72 4.7 44.83 4.69C45.42 4.69 46.06 5.14 46.09 5.95C46.13 6.92 46.1 7.9 46.1 8.91C43.05 8.91 40.02 8.91 36.96 8.91Z" fill="#804198" fill-opacity="1.000000" fill-rule="nonzero"/>
	<path id="path" d="M0.04 8.91C0.04 8.79 0.04 8.7 0.04 8.6C0.04 7.84 0.04 7.07 0.04 6.31C0.04 4.64 0.06 2.98 0.04 1.31C0.02 0.51 0.64 -0.01 1.25 0C5.94 0.01 10.63 0 15.33 0C15.68 0 15.96 0.14 16.22 0.4C17.07 1.28 17.94 2.15 18.8 3.02C19.15 3.38 19.5 3.72 19.85 4.07C20.03 4.25 20.21 4.45 20.41 4.62C20.47 4.68 20.59 4.7 20.68 4.7C22.61 4.7 24.54 4.7 26.48 4.7C32.6 4.7 38.72 4.7 44.83 4.69C45.42 4.69 46.06 5.14 46.09 5.95C46.13 6.92 46.1 7.9 46.1 8.91C43.05 8.91 40.02 8.91 36.96 8.91C24.65 8.91 12.36 8.91 0.04 8.91Z" stroke="#000000" stroke-opacity="0" stroke-width="1.000000"/>
	<path id="path" d="M14 32.28C14 28.19 14 24.13 14 20.06C14 19.71 14 19.7 14.31 19.7C15.31 19.7 16.31 19.7 17.31 19.7C17.64 19.7 17.64 19.7 17.64 20.08C17.64 24.18 17.64 28.29 17.64 32.4C17.64 32.76 17.64 32.76 17.3 32.76C16.34 32.76 15.38 32.76 14.42 32.76C13.95 32.76 14 32.82 14 32.28Z" fill="#FFFFFF" fill-opacity="1.000000" fill-rule="nonzero"/>
	<path id="path" d="M14 20.06C14 19.71 14 19.7 14.31 19.7C15.31 19.7 16.31 19.7 17.31 19.7C17.64 19.7 17.64 19.7 17.64 20.08C17.64 24.18 17.64 28.29 17.64 32.4C17.64 32.76 17.64 32.76 17.3 32.76C16.34 32.76 15.38 32.76 14.42 32.76C13.95 32.76 14 32.82 14 32.28C14 28.19 14 24.13 14 20.06Z" stroke="#000000" stroke-opacity="0" stroke-width="1.000000"/>
	<path id="path" d="M31.65 32.76C30.65 32.76 29.67 32.76 28.7 32.77C28.49 32.77 28.4 32.72 28.4 32.46C28.41 28.3 28.41 24.15 28.4 19.99C28.4 19.77 28.45 19.7 28.66 19.7C29.7 19.71 30.74 19.71 31.78 19.7C31.99 19.7 32.04 19.77 32.04 19.99C32.04 24.15 32.03 28.3 32.05 32.46C32.05 32.82 31.86 32.76 31.65 32.76Z" fill="#FFFFFF" fill-opacity="1.000000" fill-rule="nonzero"/>
	<path id="path" d="M28.7 32.77C28.49 32.77 28.4 32.72 28.4 32.46C28.41 28.3 28.41 24.15 28.4 19.99C28.4 19.77 28.45 19.7 28.66 19.7C29.7 19.71 30.74 19.71 31.78 19.7C31.99 19.7 32.04 19.77 32.04 19.99C32.04 24.15 32.03 28.3 32.05 32.46C32.05 32.82 31.86 32.76 31.65 32.76C30.65 32.76 29.67 32.76 28.7 32.77Z" stroke="#000000" stroke-opacity="0" stroke-width="1.000000"/>
</svg>
